X:1
T:HIMNO GALEGO
T:HIMNO GALEGO
T:Pascual Veiga (música)
T:Eduardo Pondal (letra)
C:Pascual Veiga
Z:Eduardo Pombal
L:1/8
M:4/4
K:C
V:1 treble+8 nm="Flauta dulce" snm="Fl. dul."
V:1
 z4 z2 (EF) | G2 G2 G2 G2 | G-A GF E2 (GE) | C2 (DE) F2 E2 | E4 D2 E-F | G2 G2 G2 G2 | %6
w: ¿Que- *|din os ru- mo|ro- * * * sos na- *|cos- ta- * ver- de|cen- te ó- *|ra- io trans- pa-|
 GA GF E2 C2 | A2 A2 (GF) E-D |S C4 z2 D-E | F2 F2 G2 FE | D3 E D2 (EF) | G2 G2 (GA) (GF) | %12
w: ren- * * * te do|prá- ci- do- * lu- *|ar? ¿Que- *|din as al- tas- *|co- * pas de- es-|cu- roa ru- * me- ar|
 E4 E2 (CD) | E2 E2 F2 G2 | (AB cB A2) A2 | (GA) (GF) E2 D2 |S C6 z2!fine! |] %17
w: pa- do, co- *|seu ben com- pa-|sa- * * * do mo-|nó- * to- * no fun|gar?|

